!!!!SEGMENT: pl-kk--kk-i-14--002_gorczycki-grzegorz-gerwazy--dignare-me-laudare.krn
!!!cenid: 17xx:2190
!!!COM: Gorczycki, Grzegorz Gerwazy
!!!COM-rismID: pe30009207
!!!CDT: ~1666-1734/04/30
!!!CNT: Polish
!!!OTL: Dignare me laudare
!!!PDT:
!!!AGN: Sacred
!!!SMS-siglum: PL-Kk
!!!SMS-shelfmark: Kk.I.14
!!!SMS-shelfwork: 002 W
!!!SMS-variant:
!!!SMS-altvar:
!!!NIFC-rismSourceID: 1001154377
!!!NIFC-islandoraID: pl-kk:2607
!!!URL-pdf-islandora: https://repozytorium.nifc.pl/islandora/object/pl-kk%3A2607/datastream/PDF/view
!!!URL-scan: https://polish.musicsources.pl/pl/lokalizacje/galeria/rekopisy/5768 @EN{Scan on Polish Music Sources Website} @PL{Skany w portalu Dziedzictwo Muzyki Polskiej w otwartym dostępie}
!!!ONB-nifc: UWAGA: T (skan 0002), B (0015). Następny utwór: Tota pulchra es Maria
!!!AIN: 1 bass 1 tenor
!!!key:
**kern	**text	**kern	**text
*part2	*part2	*part1	*part1
*staff2	*staff2	*staff1	*staff1
*Ibass	*	*Itenor	*
*I"Basso	*	*I"2do Tenore	*
*I'B	*	*I'T 2	*
*clefF4	*	*clefC1	*
*k[]	*	*k[]	*
*d:	*	*d:	*
*M2/1	*	*M2/1	*
*met(C)	*	*met(C)	*
*all\right	*	*all\right	*
=1-	=1-	=1-	=1-
00r	.	00r	.
=2-	=2-	=2-	=2-
.	.	.	.
=3-	=3-	=3-	=3-
00r	.	0r	.
=4-	=4-	=4-	=4-
.	.	1dd	Di-
*	*	*2\right	*
.	.	2dd\	-gna-
!	!	!LO:TX:t=P:problem=kreska pseudotaktowa	!
.	.	2cc#X\	-re
=5-	=5-	=5-	=5-
1r	.	2dd\	me
.	.	2a\	lau-
!LO:TX:t=P:problem=kreska pseudotaktowa	!	!	!
1D/	Di-	4dd\	-da-
.	.	4ccny\	.
.	.	4dd\	.
.	.	4ee\	.
=6-	=6-	=6-	=6-
2D/	-gna-	2ff\	.
2C#X/	-re	2ee\	.
2D/	me	2dd\	.
2AA/	lau-	4cc\	.
.	.	4b\	.
=7-	=7-	=7-	=7-
4D/	-da-	2.a\	.
4Cny/	.	.	.
4D/	.	.	.
!LO:TX:t=P:problem=kreska pseudotaktowa	!	!	!
4E/	.	4g\	.
*2\right	*	*	*
2F\	.	4a\	.
.	.	4b\	.
4E\	.	4cc\	.
4D\	.	4dd\	.
=8-	=8-	=8-	=8-
!	!	!LO:LB:g=original	!
4C/	.	4ee\	.
4BB/	.	4dd\	.
4AA/	.	4cc\	.
4GG/	.	4b\	.
4FF/	.	4a\	.
4DD/	.	4g\	.
4FF/	.	4a\	.
!LO:TX:t=P:problem=kreska pseudotaktowa	!	!	!
4GG/	.	4b-X\	.
=9-	=9-	=9-	=9-
2AA/	.	2a\	-re
2AA/	-re	2a\	.
!LO:LB:g=original	!	!	!
2D,</	te	2a\	te
2F\	lau-	2dd\	di-
=10-	=10-	=10-	=10-
1E	-da-	2dd\	-gna-
.	.	2cc#X\	-re
2D/	-re	2dd\	me
!LO:TX:t=P:problem=kreska pseudotaktowa	!	!	!
2AA/	lau-	2ccn\	lau-
=11-	=11-	=11-	=11-
2E\	-da-	2bny\	-da-
2E\	-re	2b\	-re
2AA,</	te	2a\	te
!LO:TX:t=P:problem=kreska pseudotaktowa	!	!	!
2A\	di-	2a\	lau-
=12-	=12-	=12-	=12-
2A\	-gna-	4b\	-da-
.	.	4cc\	.
!LO:TX:t=P:problem=kreska pseudotaktowa	!	!	!
2G#X\	-re	4dd\	.
.	.	4ee\	.
2A\	me	4cc\	.
.	.	4a\	.
!	!	!LO:LB:g=original	!
2E\	lau-	2b\	.
=13-	=13-	=13-	=13-
2A\	-da-	2a\	-re
4Gny\	.	2g/	lau-
4F\	.	.	.
2E\	-re	2g/	-da-
!LO:TX:t=P:problem=kreska pseudotaktowa	!	!	!
2E\	.	2e/	-re
=14-	=14-	=14-	=14-
2D,</	te	1a	te
!LO:TX:t=P:problem=kreska pseudotaktowa	!	!	!
2D/	Vir-	.	.
2D/	-go	00r	.
2C/	sa-	.	.
=15-	=15-	=15-	=15-
!LO:LB:g=original	!	!	!
2D/	-cra-	.	.
2E\	.	.	.
2F\	.	.	.
4E\	.	.	.
!LO:TX:t=P:problem=kreska pseudotaktowa	!	!	!
4D\	.	.	.
=16-	=16-	=16-	=16-
4C\	.	.	.
(4D\	.	.	.
(4E\)	.	.	.
!LO:TX:t=P:problem=kreska pseudotaktowa	!	!	!
4F\)	.	.	.
2G\	.	0r	.
4F\	.	.	.
4E\	.	.	.
=17-	=17-	=17-	=17-
4D\	.	.	.
4E\	.	.	.
4F\	.	.	.
4G\	.	.	.
2A\	.	2r	.
!LO:TX:t=P:problem=kreska pseudotaktowa	!	!	!
2AA/	.	2a\	Vir-
=18-	=18-	=18-	=18-
2D/	-ta	2a\	-go
2r	.	2g/	sa-
00r	.	2a\	-cra-
.	.	2b\	.
=19-	=19-	=19-	=19-
.	.	2cc\	.
.	.	4b\	.
!	!	!LO:TX:t=P:problem=kreska pseudotaktowa	!
.	.	4a\	.
.	.	4g\	.
.	.	4a\	.
.	.	4b\	.
.	.	4cc\	.
=20-	=20-	=20-	=20-
.	.	2.dd\	.
.	.	8cc\L	.
.	.	8b\J	.
00r	.	1a	.
=21-	=21-	=21-	=21-
.	.	1a	-ta
.	.	0r	.
=22-	=22-	=22-	=22-
.	.	.	.
!	!	!LO:LB:g=original	!
00r	.	2r	.
.	.	2a\	Vir-
=23-	=23-	=23-	=23-
.	.	2a\	-go
.	.	2g/	Sa-
.	.	2.a\	-cra-
!	!	!LO:TX:t=P:problem=kreska pseudotaktowa	!
.	.	4b-X\	.
=24-	=24-	=24-	=24-
.	.	4cc\	.
.	.	4b-X\	.
.	.	4a\	.
.	.	4f/	.
1r	.	4b-X\	.
.	.	4a\	.
.	.	2g/	.
=25-	=25-	=25-	=25-
2r	.	1a	-ta
2D/	Vir-	.	.
2D/	-go	0r	.
2C/	sa-	.	.
=26-	=26-	=26-	=26-
!LO:LB:g=original	!	!	!
2D\	-cra-	.	.
2E\	.	.	.
2F\	.	1r	.
4E\	.	.	.
4D\	.	.	.
=27-	=27-	=27-	=27-
4C\	.	2r	.
4D\	.	.	.
*	*	*	*ij
4E\	.	2cc\	vir-
!LO:TX:t=P:problem=kreska pseudotaktowa	!	!	!
4F\	.	.	.
2G\	.	2bn\	-go
4F\	.	2g/	sa-
4E\	.	.	.
=28-	=28-	=28-	=28-
4D\	.	2dd\	-cra-
4E\	.	.	.
4F\	.	2dd\	-ta
*	*	*	*Xij
!LO:TX:t=P:problem=kreska pseudotaktowa	!	!	!
4G\	.	.	.
2A\	.	2r	.
!LO:TX:t=P:problem=kreska pseudotaktowa	!	!	!
2AA/	.	2a\	Vir-
=29-	=29-	=29-	=29-
2D/	-ta	2a\	-go
!LO:TX:t=P:problem=kreska pseudotaktowa	!	!	!
2r	.	2g/	sa-
!	!	!LO:PB:g=original	!
2r	.	2.a\	-cra-
2A\	Vir-	.	.
!	!	!LO:TX:t=P:problem=kreska pseudotaktowa	!
.	.	4bn\	.
=30-	=30-	=30-	=30-
2A\	-go	2cc\	.
!LO:TX:t=P:problem=kreska pseudotaktowa	!	!	!
2D/	sa-	4b\	.
.	.	4a\	.
!LO:TX:t=P:problem=kreska pseudotaktowa	!	!	!
1E	-cra-	2g#X/	-ta
.	.	2ee\	Vir-
=31-	=31-	=31-	=31-
!LO:PB:g=original	!	!	!
2AA,</	-ta	2cc#X\	-go
!LO:TX:t=P:problem=kreska pseudotaktowa	!	!	!
2A\	Vir-	2a\	sa-
2F\	-go	2dd\	-cra-
2D/	sa-	2dd\	-ta
=32-	=32-	=32-	=32-
4A\	-cra-	1r	.
4G\	.	.	.
2F\	.	.	.
2E\	.	2r	.
2D/	.	2a\	sa-
=33-	=33-	=33-	=33-
1.A	.	4a\	-cra-
.	.	4gny\	.
.	.	4f/	.
.	.	4d/	.
.	.	1a	.
2AA/	.	.	.
=34-	=34-	=34-	=34-
0D	-ta	0a	-ta
=35||-	=35||-	=35||-	=35||-
*M2/1	*	*M2/1	*
*met(C)	*	*met(C)	*
!	!	!LO:LB:g=original	!
00r	.	1r	.
.	.	1d	Da
=36-	=36-	=36-	=36-
.	.	1a	mi-
.	.	(4a\	-hi
.	.	4g\)	.
.	.	(4a\	vir-
.	.	4b\)	.
=37-	=37-	=37-	=37-
00r	.	1ccny	-tu-
.	.	4b\	.
.	.	4a\	.
.	.	4b\	.
.	.	4dd\	.
=38-	=38-	=38-	=38-
.	.	4cc#X\	.
.	.	4a\	.
.	.	1dd	.
!	!	!LO:TX:t=P:problem=kreska pseudotaktowa	!
.	.	2cc#\	.
=39-	=39-	=39-	=39-
1r	.	2dd\	-tem
.	.	2.a\	Con-
1AA	Da	.	.
.	.	4g/	.
.	.	4f/	.
.	.	4e/	.
=40-	=40-	=40-	=40-
1D	mi-	2d/	.
.	.	2d/	-tra
!LO:LB:g=original	!	!LO:LB:g=original	!
4D\	-hi	2g/	hoſ-
(4C\	.	.	.
4D\)	.	2d/	-tes
!LO:TX:t=P:problem=kreska pseudotaktowa	!	!	!
4E\	vir-	.	.
=41-	=41-	=41-	=41-
1F	-tu-	2a\	con-
.	.	2f/	-tra
4E\	.	2ccny\	hoſ-
4D\	.	.	.
4E\	.	2cc\	-tes
4F\	.	.	.
=42-	=42-	=42-	=42-
4G\	.	2r	.
4D\	.	.	.
1G	.	2g/	da
.	.	1a	mi-
2F\	.	.	.
=43-	=43-	=43-	=43-
1E	.	2g/	-hi
.	.	2e/	vir-
1D	-tem	2.a\	-tu-
.	.	4b\	.
=44-	=44-	=44-	=44-
0r	.	2cc#X\	.
.	.	2.dd\	.
.	.	4a\	.
.	.	1dd\	.
=45-	=45-	=45-	=45-
1r	.	.	.
.	.	2cc#X\	.
2r	.	2dd\	-tem
!	!	!LO:TX:t=P:problem=kreska pseudotaktowa	!
2.A\	Con-	2r	.
=46-	=46-	=46-	=46-
.	.	2.a\	con-
4G\	.	.	.
4F\	.	.	.
4E\	.	4g/	.
2D/	-tra	4f/	.
.	.	4d/	-tra
!LO:TX:t=P:problem=kreska pseudotaktowa	!	!LO:LB:g=original	!
2D/	.	2.dd\	Con-
=47-	=47-	=47-	=47-
2.G\	Con-	.	.
.	.	4ccny\	.
.	.	4b\	.
4F\	.	4a\	.
!LO:LB:g=original	!	!	!
4E\	.	2g/	.
4D\	.	.	.
2C/	.	2g/	-tra
=48-	=48-	=48-	=48-
2C,</	-tra	2.gg\	con-
2c\	Con-	.	.
.	.	4ff\	.
!LO:N:xstem:cue	!	!	!
4c	.	4ee\	.
4B\	.	4dd\	.
!	!	!LO:TX:t=P:problem=kreska pseudotaktowa	!
4A\	.	2cc\	-tra
4G\	.	.	.
=49-	=49-	=49-	=49-
2F\	.	2cc\	.
2F\	-tra	2a\	hoſ-
2G\	hos-	(2b\	-tes
2D/	tes	2a\)	.
=50-	=50-	=50-	=50-
1AA	tu-	1a	tu-
1D	-os	1f#X	-os
=51-	=51-	=51-	=51-
00r	.	1r	.
.	.	1a	Da
=52-	=52-	=52-	=52-
.	.	1ee	mi-
.	.	(4dd\	-hi
.	.	4cc\)	.
.	.	4dd\	vir-
.	.	4ee\	.
=53-	=53-	=53-	=53-
0r	.	2ff\	-tu-
!	!	!LO:LB:g=original	!
.	.	2dd\	-tem
.	.	2.ee\	con-
.	.	4cc\	-tra
=54-	=54-	=54-	=54-
1r	.	2dd\	hoſ-
!	!	!LO:TX:t=P:problem=kreska pseudotaktowa	!
.	.	2b\	-tes
2r	.	2.ee\	con-
2.A\	Con-	.	.
.	.	4dd\	.
=55-	=55-	=55-	=55-
.	.	4cc\	.
4G\	.	4b\	.
!	!	!LO:TX:t=P:problem=kreska pseudotaktowa	!
4F\	.	2a\	-tra
4E\	.	.	.
2D/	.	2a\	.
!LO:TX:t=P:problem=kreska pseudotaktowa	!	!LO:TX:t=P::problem=kreska pseudotaktowa&colon;między nutą a kropką	!
2D/	-tra	2.dd\	con-
=56-	=56-	=56-	=56-
2.G\	Con-	.	.
.	.	4cc\	.
.	.	4b\	.
4F\	.	4a\	.
!LO:LB:g=original	!	!	!
4E\	.	2g/	-tra
4D\	.	.	.
2C/	.	2g/	.
=57-	=57-	=57-	=57-
2C,</	-tra	2.gg\	Con-
2.c\	con-	.	.
.	.	4ff\	.
.	.	4ee\	.
4B\	.	4dd\	.
4A\	.	2cc\	.
4G\	.	.	.
=58-	=58-	=58-	=58-
2F\	.	2cc\	-tra
*	*	*	*ij
!	!	!LO:TX:t=P:problem=kreska pseudotaktowa	!
2F\	-tra	1a	con-
2D/	con-	.	.
!	!	!LO:LB:g=original	!
1G	.	2b\	-tra
*	*	*	*Xij
=59-	=59-	=59-	=59-
.	.	2cc#X\	ho-
2F\	-tra	2dd\	.
2E\	hos-	2ee\	.
2D/	-tes	2a\	ſtes-
=60-	=60-	=60-	=60-
0AA	tu-	4a\	tu-
.	.	4g/	.
.	.	4fny/	.
.	.	4d/	.
.	.	1a	.
=61-	=61-	=61-	=61-
0D	-os	0a	-os
=62||-	=62||-	=62||-	=62||-
*M2/1	*	*M2/1	*
*met(C)	*	*met(C)	*
00r	.	00r	.
=63-	=63-	=63-	=63-
.	.	.	.
=64-	=64-	=64-	=64-
00r	.	0r	.
=65-	=65-	=65-	=65-
.	.	1r	.
.	.	2r	.
.	.	2dd\	A-
=66-	=66-	=66-	=66-
1r	.	2ccny\	.
!	!	!LO:TX:t=P:problem=kreska pseudotaktowa	!
.	.	2b-X\	.
2r	.	2a\	-men
2A\	a-	2cc\	a-
=67-	=67-	=67-	=67-
2G\	.	2b-X\	.
2F\	.	2a\	.
!LO:LB:g=original	!	!	!
2.E\	.	1g	-men
4C\	.	.	.
=68-	=68-	=68-	=68-
!	!	!LO:LB:g=original	!
2.F\	.	2r	.
.	.	2a\	a-
4D\	.	.	.
2.G\	.	2bny\	.
.	.	4cc#X\	.
4F\	.	4a\	.
=69-	=69-	=69-	=69-
1E	.	2dd\	.
.	.	2cc#X\	.
2D,</	-men	2dd\	-men
!LO:TX:t=P:problem=kreska pseudotaktowa	!	!	!
2D/	a-	2f/	a-
=70-	=70-	=70-	=70-
2C/	.	4g\	.
.	.	4a\	.
2BB-X/	.	4b-X\	.
.	.	4g\	.
2.AA/	.	4a\	.
.	.	4b-X\	.
.	.	4ccny\	.
4FF/	.	4a\	.
=71-	=71-	=71-	=71-
2.BB-X/	.	2dd\	.
.	.	2dd\	-men
4GG/	.	.	.
2.C/	.	1r	.
4AA/	.	.	.
=72-	=72-	=72-	=72-
2D/	.	2.a\	a-
1D	.	.	.
.	.	4f/	.
.	.	2.g/	.
!LO:TX:t=P:problem=kreska pseudotaktowa	!	!	!
2C#X/	.	.	.
.	.	4e/	.
=73-	=73-	=73-	=73-
!LO:LB:g=original	!	!	!
2D,</	-men	2a\	.
2D/	a-	2a\	-men
!	!	!LO:LB:g=original	!
4E\	.	1r	.
4F\	.	.	.
4G\	.	.	.
4E\	.	.	.
=74-	=74-	=74-	=74-
4F\	.	2r	.
4G\	.	.	.
4A\	.	2a\	a-
4F\	.	.	.
4G\	.	4bn\	.
4A\	.	4cc\	.
4B-X\	.	4dd\	.
!LO:TX:t=P:problem=kreska pseudotaktowa	!	!LO:TX:t=P:problem=kreska pseudotaktowa	!
4G\	.	4b\	.
=75-	=75-	=75-	=75-
2A\	-men	4cc\	.
.	.	4dd\	.
2A\	a-	4ee\	.
.	.	4cc\	.
2G\	.	2dd\	-men
!LO:TX:t=P:problem=kreska pseudotaktowa	!	!	!
2F\	.	2dd\	a-
=76-	=76-	=76-	=76-
2.E\	.	2cc\	.
.	.	2b-X\	.
4Cny/	.	.	.
2.F\	.	2a\	.
.	.	2a\	-men
4D\	.	.	.
=77-	=77-	=77-	=77-
2.G\	.	1r	.
4F\	.	.	.
2E\	.	2r	.
2D/	.	2d/	a-
=78-	=78-	=78-	=78-
!LO:LB:g=original	!	!	!
0AA	.	4e/	.
.	.	4f/	.
.	.	4g/	.
.	.	4f/	.
.	.	1e	.
=79-	=79-	=79-	=79-
!LO:TX:t=P:problem=kreska pseudotaktowa	!	!	!
0D	-men	0f#X	-men
=80-	=80-	=80-	=80-
!	!	!LO:LB:g=original	!
0AA	a-	0g	a-
=81-	=81-	=81-	=81-
0D	-men	0f#X	-men
=-	=-	=-	=-
*-	*-	*-	*-
!!!system-decoration: [(s1,s2)]
!!!RDF**kern: < = below
!!!RDF**kern: > = above
!!!ENC: Marta Chmielewska
!!!END: 2021-07-15
!!!ENC: Andrzej Gręziak
!!!END: 2021-06-30
